Newaita-dark/actions/16/kdenlive-select-images.svg

<svg height="16" viewBox="0 0 16 16" width="16" xmlns="http://www.w3.org/2000/svg"><g fill="#e0e0e0"><path d="m2.644531 1.449219c-.730469 0-1.320312.589843-1.320312 1.320312v2.648438h1.320312v-1.984375c0-.367188.296875-.664063.664063-.664063h1.984375v-1.320312zm7.941407 0v1.320312h1.984374c.363282 0 .660157.296875.660157.664063v1.984375h1.324219v-2.648438c0-.730469-.589844-1.320312-1.324219-1.320312zm-9.261719 9.261719v2.644531c0 .734375.589843 1.324219 1.320312 1.324219h2.648438v-1.324219h-1.984375c-.367188 0-.664063-.296875-.664063-.660157v-1.984374zm11.90625 0v1.984374c0 .363282-.296875.660157-.660157.660157h-1.984374v1.324219h2.644531c.734375 0 1.324219-.589844 1.324219-1.324219v-2.644531zm0 0"/><path d="m5.992188 6.210938c-.125-.003907-.242188.0625-.304688.175781l-3.640625 6.617187c-.058594.105469-.058594.238282.003906.34375.066407.105469.179688.171875.304688.167969s.234375-.074219.292969-.183594l3.355468-6.097656 2.335938 3.796875c.054687.089844.148437.148438.253906.160156.105469.011719.207031-.023437.28125-.097656l1.710938-1.707031 3.066406 3.988281c.074218.101562.195312.152344.320312.136719.121094-.015625.226563-.097657.273438-.210938s.027344-.246093-.046875-.34375l-3.308594-4.296875c-.0625-.078125-.152344-.128906-.25-.136718-.097656-.003907-.195313.03125-.265625.101562l-1.675781 1.675781-2.417969-3.929687c-.0625-.097656-.171875-.160156-.289062-.160156zm0 0"/><path d="m10.453125 3.5625c-.824219 0-1.5.675781-1.5 1.5 0 .828125.675781 1.5 1.5 1.5s1.5-.671875 1.5-1.5c0-.824219-.675781-1.5-1.5-1.5zm0 .6875c.457031 0 .8125.355469.8125.8125s-.355469.816406-.8125.816406-.816406-.359375-.816406-.816406.359375-.8125.816406-.8125zm0 0"/></g></svg>

<svg xmlns="http://www.w3.org/2000/svg" xmlns:xlink="http://www.w3.org/1999/xlink" width="16px" height="16px" viewBox="0 0 16 16" version="1.1">
<g id="surface1">
     <defs>
  <style id="current-color-scheme" type="text/css">
   .ColorScheme-Text { color:#eeeeee; } .ColorScheme-Highlight { color:#424242; }
  </style>
 </defs>
<path style="fill:currentColor" class="ColorScheme-Text" d="M 2.644531 1.449219 C 1.914062 1.449219 1.324219 2.039062 1.324219 2.769531 L 1.324219 5.417969 L 2.644531 5.417969 L 2.644531 3.433594 C 2.644531 3.066406 2.941406 2.769531 3.308594 2.769531 L 5.292969 2.769531 L 5.292969 1.449219 Z M 10.585938 1.449219 L 10.585938 2.769531 L 12.570312 2.769531 C 12.933594 2.769531 13.230469 3.066406 13.230469 3.433594 L 13.230469 5.417969 L 14.554688 5.417969 L 14.554688 2.769531 C 14.554688 2.039062 13.964844 1.449219 13.230469 1.449219 Z M 1.324219 10.710938 L 1.324219 13.355469 C 1.324219 14.089844 1.914062 14.679688 2.644531 14.679688 L 5.292969 14.679688 L 5.292969 13.355469 L 3.308594 13.355469 C 2.941406 13.355469 2.644531 13.058594 2.644531 12.695312 L 2.644531 10.710938 Z M 13.230469 10.710938 L 13.230469 12.695312 C 13.230469 13.058594 12.933594 13.355469 12.570312 13.355469 L 10.585938 13.355469 L 10.585938 14.679688 L 13.230469 14.679688 C 13.964844 14.679688 14.554688 14.089844 14.554688 13.355469 L 14.554688 10.710938 Z M 13.230469 10.710938 "/>
     <defs>
  <style id="current-color-scheme" type="text/css">
   .ColorScheme-Text { color:#eeeeee; } .ColorScheme-Highlight { color:#424242; }
  </style>
 </defs>
<path style="fill:currentColor" class="ColorScheme-Text" d="M 5.992188 6.210938 C 5.867188 6.207031 5.75 6.273438 5.6875 6.386719 L 2.046875 13.003906 C 1.988281 13.109375 1.988281 13.242188 2.050781 13.347656 C 2.117188 13.453125 2.230469 13.519531 2.355469 13.515625 C 2.480469 13.511719 2.589844 13.441406 2.648438 13.332031 L 6.003906 7.234375 L 8.339844 11.03125 C 8.394531 11.121094 8.488281 11.179688 8.59375 11.191406 C 8.699219 11.203125 8.800781 11.167969 8.875 11.09375 L 10.585938 9.386719 L 13.652344 13.375 C 13.726562 13.476562 13.847656 13.527344 13.972656 13.511719 C 14.09375 13.496094 14.199219 13.414062 14.246094 13.300781 C 14.292969 13.1875 14.273438 13.054688 14.199219 12.957031 L 10.890625 8.660156 C 10.828125 8.582031 10.738281 8.53125 10.640625 8.523438 C 10.542969 8.519531 10.445312 8.554688 10.375 8.625 L 8.699219 10.300781 L 6.28125 6.371094 C 6.21875 6.273438 6.109375 6.210938 5.992188 6.210938 Z M 5.992188 6.210938 "/>
     <defs>
  <style id="current-color-scheme" type="text/css">
   .ColorScheme-Text { color:#eeeeee; } .ColorScheme-Highlight { color:#424242; }
  </style>
 </defs>
<path style="fill:currentColor" class="ColorScheme-Text" d="M 10.453125 3.5625 C 9.628906 3.5625 8.953125 4.238281 8.953125 5.0625 C 8.953125 5.890625 9.628906 6.5625 10.453125 6.5625 C 11.277344 6.5625 11.953125 5.890625 11.953125 5.0625 C 11.953125 4.238281 11.277344 3.5625 10.453125 3.5625 Z M 10.453125 4.25 C 10.910156 4.25 11.265625 4.605469 11.265625 5.0625 C 11.265625 5.519531 10.910156 5.878906 10.453125 5.878906 C 9.996094 5.878906 9.636719 5.519531 9.636719 5.0625 C 9.636719 4.605469 9.996094 4.25 10.453125 4.25 Z M 10.453125 4.25 "/>
</g>
</svg>
